X:157
T:Crooked Stovepipe
S:Colin Hume's website,  colinhume.com  - chords can also be printed below the stave.
Q:1/2=120
M:4/4
L:1/4
K:G
P:A
|: "G"GB B/c/d/B/ | "G"GB B/c/d/B/ | "G"GB "Em"e3/B/ | "Am"dc c2 |\
"D"FA A/B/c/A/ | "D"FA A/B/c/d/ | "Am"ed "D7"ef |1 "G"gf/e/ "D"d/c/B/A/ :|2 "G"gf ga |]
P:B
|: "G"b3a | g3f | "C"ee fg | "Am"a3 b |\
"D"c'3a | f3 e | dd ef |1 "G"gf ga :|2 "G"gf/e/ "D"d/c/B/A/ |]

